X: 8469
T: Cran Man
R: jig
M: 6/8
K: Ddorian
fdg fdc|Acd Acd|fdg fdc|AGF GFD|
fdg fdc|Acd Acd|fdc dcA|cAF GFD:|
FAF GFA|FAF GFD|FAF GAc|dcA GFD|
FAF GFA|FAF GAc|dcA cAF|AGF GFD:|

